X:258
T:
R:polska
S:Efter instrumentmakaren Köhler i Visby.
O:Gotland, Visby
M:3/4
L:1/16
K:G
G2B2 B2AB A2G2|G2g2 gfef g2e2|d2ef g2e2 f2d2|e2^c2 d4 D4::
g2d2 d2B2 B2G2|e2d2 c2B2 A4|g2d2 d2B2 B2G2|
efed cdcB A4|cBcd e2c2B2A2|GFEF A4 G4:|

